X:223
T:Oyster Girl
M:6/8
L:1/8
K:G
B2 c | ded B2 G | A2 F DEF | GFG BAB | d2 c A3 |
ded Bdg | f2 e c2 e| ded cBA | G3:|
d3 | Bcd Bcd | e2 c e2 c | ABc ABc | d2 B d2 B |
ded Bdg | f2 e c2 e| ded cBA | G3:|
